X: 13241
T: Fisherman's Island, The
R: reel
M: 4/4
K: Dmajor
|:"D"DEFA d2 dA|"G"BAGB "D"AFDF|"A"GEED EFGA|"G"B/c/d ed "A"cAAg|
"D"fddd "A"ecAc|"D"dddA "G"BAGF|"A"EFGA B/c/d ed|1 cAGE "A7"EDCE:|2 "A7"cAGE "D"EDDg|
|:"D"fddd AFFF|DFAd f2 ef|"A"gece bece|"D"dfed "A"c/B/A GE|
"D"DFFF Adfd|"G"Bggg edcB|"D"Adfa "G"gbed|1 "A"c/B/A GE "D"EDDg:|2 "A"c/B/A GE "D"EDD2||

